X: 1
T:Ye Warwickshire Lads & Ye Lasses. WCl.60
M:6/8
L:1/8
Q:80
S:William Clarke MS,Lincoln,1770.
R:Air
O:Lincoln
A:England
Z:vmp.Barry Callaghan
K:G
d|gdd ecc|dB2zzd|gdd ecc|dB2zzA|!
BAB G2G|d^cd A2G|FAd GBe|Adf Beg|!
faf Ad^c|ddd d2z|ded e2z|(d>ed) ege|!
dBB cAA|BGG G2z|ded e2z|!
(d>ed) ege|dBB cAA|BGG G2||
